X:99
T:Pease Bransle
M:C
L:1/4
K:F
|: "Gm" B2 B c | "Bb" d2 d d | "Cm" _e d c c | "Bb" d2 G2 :: "Gm" G A F2 | G A B A | G A B c | B A G2 :|
%
%
